X:1
T:Hall (Jones), 87.87 D
T:Hall (Jones), 87.87 D
T:Abner Jones, 1836
T:Public Domain Courtesy of the Cyber Hymnal™
C:Abner Jones, 1836
Z:Public Domain
Z:Courtesy of the Cyber Hymnal™
%%score ( 1 2 ) ( 3 4 )
L:1/8
Q:1/4=105
M:3/4
K:Bb
V:1 treble 
V:2 treble 
V:3 bass 
V:4 bass 
V:1
|: [DF]>[DF] | [EG]2 [DF]2 [DB]>[DF] | [EG]2 [DF]2 [FB]>[FB] | [Ec]2 [Ec]2 [CA]>[CA] | [DB]4 :| %5
 [Fc]>[Fc] | [Fd]2 [Fc]2 [Ff]>[Fc] | [Fd]2 [Fc]2 [Fc]>[Fc] | [Fd]2 [GB]2 [FA]>[=EG] | %9
 F4 [DF]>[DF] | [EG]2 [DF]2 [DB]>[DF] | [EG]2 [DF]2 [FB]>[FB] | [Ec]2 [Ec]2 [CA]>[CA] | [DB]4 |] %14
V:2
|: x2 | x6 | x6 | x6 | x4 :| x2 | x6 | x6 | x6 | F4 x2 | x6 | x6 | x6 | x4 |] %14
V:3
|: [B,,B,]>[B,,B,] | [B,,B,]2 [B,,B,]2 [B,,B,]>[B,,B,] | [B,,B,]2 [B,,B,]2 [D,F,]>[D,F,] | %3
 [E,G,]2 [E,G,]2 F,>F, | [B,,F,]4 :| [F,A,]>[F,A,] | [F,B,]2 [F,A,]2 [F,A,]>[F,A,] | %7
 [F,B,]2 [F,A,]2 [F,A,]>[F,A,] | B,2 [B,,C]2 [C,C]>[C,B,] | [F,,F,A,]4 [B,,B,]>[B,,B,] | %10
 [B,,B,]2 [B,,B,]2 [B,,B,]>[B,,B,] | [B,,B,]2 [B,,B,]2 [D,F,]>[D,F,] | [E,G,]2 [E,G,]2 F,>F, | %13
 [B,,F,]4 |] %14
V:4
|: x2 | x6 | x6 | x4 F,>F, | x4 :| x2 | x6 | x6 | B,2 x4 | x6 | x6 | x6 | x4 F,>F, | x4 |] %14

